X: 05026
T: 5th PRIZE REEL
C: Bob McQuillen 17 May 81
B: Bob's Note Book 5 #26
%R: reel
Z: 2021 John Chambers <jc:trillian.mit.edu>
M: C
L: 1/8
K: G
|:G2GA BAGB | AGAG E2DE | G2GA BAGB | dBde d2BA |\
| G2GA BAGB | AGAG E2DE | G2GA BAGB | dBAB G4  :|
|:d2de gage | dedB e2d2 | d2de gage | dBGB A2Bc |\
| d2de gage | dedB A2G2 | G2GA BAGB | AGAB G4  :|
%%begintext align
%% April Limber
%% played super at the Waltham French Club
%% Fiddlers' Contest today and won 5th place!
%%endtext

%%sep 1 1 500

%%sep 1 1 500

